X: 3305
T: John of Bon Accord
P: John of Bon Accord
C:George Meikle
R:Reel (8x32)
B:RSCDS 33-5
Z:Anselm Lingnau <anselm@strathspey.org>
M:4/4
L:1/8
K:A
|:AB|"A"c2Bc eAAB|cBcd ecBA|"Bm"d2cd fddc|dcde fd"E7"BG|
     "A"c2Bc eAAB|cBcd ecBA|"Bm"dcdf "E7"Bcde|"A"cA"D"AA "A"A2:|
|:"E7"cd|"A"e2^de fece|a2ga fece|"Bm"f2ef defa|"B7"bagf "E7"edcd|
     "A"e2^de fece|a2ga fece|"Bm"d2cd "E7"Bcde|"A"cA"D"AA "A"A2:|
%%center Book33/3305-John_of_Bon_Accord-AL.abc

%%sep 2 1 500
%%sep 1 1 500

